X: 25
T: Cooley's
Z: Stuart Morison
S: https://thesession.org/tunes/1#setting53701
R: reel
M: 4/4
L: 1/8
K: Edor
|:GF|EBBA B2 EB|~B2 AB dBAG|F/E/D AD BDAD|F/E/D AD BAGF|
EBBA B2 EB|~B2 AB defg|afef dBAF|DE F/E/D E2:|
|:gf|eB B/B/B eBgB|eB B/B/B gedB|A/B/A FA DAFA|ABde fdgf|
eB B/B/B eBgB|eB B/B/B defg|afef dBAF|DE F/E/D E2:|

%-------------------- TUNE SEPARATOR --------------------%

